X: 20565
T: John Naughton's
R: reel
M: 4/4
K: Fmajor
F|:DG GG Acdc|A2 FG AFGF|DG GG Acde|fdcA AGGF|
DG GG Acdc|A2 FG AFGF|DG GG Acde|fdcA AGGF:|
|:g3 g gfdc|Acde f2 ef|g3 g gfde|fdcA AG G2|
g3 g gfdc|Acde f3 g|ag gg gfde|fdcA AG G2:|

